X: 09006
T: ANOTHER DOOZY?
C: Bob McQuillen 24 Oct 92
B: Bob's Note Book 9 #6
%R: reel
Z: 2019 John Chambers <jc:trillian.mit.edu>
M: C
L: 1/8
K: G
de \
| g2ga bgdB | c2a2 a2ag | fefg agfe | d2g2 g2dc |
| BGBd gdgd | ceag fgfe | dede fdef | g2G2 G2 :|
|: GA \
| B2BG DGBd | B2BG AGED | B2BG DGBd | egeB A2GB |
| d2Bd gdBd | cBAG E2DE | G2Bd edBG | A4   G2 :|
%%begintext align
%% I've known Peggy Duesenberry Binney for
%% nearly a hundred years, well anyway, its a long time. She's a great fiddler,
%% and we used to play for Duke Miller in Fitzwilliam years ago. She has
%% her own tune (Peggy's Doozy) in Book 1 (see? I told you it was close to
%% a hundred years!) and now she and her husband* have a little daughter
%% named Sara Helen Binney. So this tune is for you, Sara, with much love
%% from QUACK, and I hope it gets to you, over in Scotland (which is where they
%% all live now.)
%%endtext
%%begintext align
%% *TIM BINNEY - Sorry, Tim -
%% your name was supposed to be right there!
%%endtext

%%sep 1 1 500

%%sep 1 1 500

